X: 22501
T: Lady Dorothea Stewart Murray
R: jig
M: 6/8
K: Amajor
cBA ABA|ceee3|fef fga|fec BAB|
cBA ABA|ceef2e|fgaf2e|cAAA2d:|
;cee efa|ffff3|ece efa|fec BAB|
[1 cee efa|ffff2e|fgaf2e|cAAA2d:|
[2 cBA ABA|ceef2e|fgaf2e|cAAA2d||

